build/img/icons/rivertime-logo.svg

<svg width="167" height="59" viewBox="0 0 167 59" fill="none" xmlns="http://www.w3.org/2000/svg">
<path fill-rule="evenodd" clip-rule="evenodd" d="M44.465 32.6095C36.4387 31.4697 30.971 24.8509 30.971 16.5773C30.971 7.73383 37.5928 0.807129 46.9591 0.807129C56.3253 0.807129 62.9471 7.73383 62.9471 16.5773C62.9471 24.6675 57.7191 31.1755 49.9831 32.5256V36.3555L164.516 36.3555C165.621 36.3555 166.516 37.2509 166.516 38.3555V56.8071C166.516 57.9117 165.621 58.8071 164.516 58.8071H2C0.895435 58.8071 0 57.9117 0 56.8071V38.3555C0 37.2509 0.895431 36.3555 2 36.3555H44.465V32.6095ZM36.7651 16.5773C36.7651 10.5655 41.0343 5.94769 46.9591 5.94769C52.8838 5.94769 57.1531 10.5655 57.1531 16.5773C57.1531 22.8506 52.8838 27.6426 46.9591 27.6426C41.0343 27.6426 36.7651 22.8506 36.7651 16.5773ZM0 32.2604H5.61977V14.4427C5.61977 12.613 5.31482 9.65065 5.31482 9.65065H5.40195C5.40195 9.65065 6.796 12.613 7.97223 14.4427L19.691 32.2604H25.2672V1.3299H19.691V19.1912C19.691 21.0209 19.9959 23.9832 19.9959 23.9832H19.9088C19.9088 23.9832 18.4712 21.0209 17.3385 19.1912L5.61977 1.3299H0V32.2604ZM81.4026 32.2604H75.565L64.4126 1.3299H70.468L77.264 21.5001C77.8304 23.2862 78.4403 26.0308 78.4403 26.0308H78.5274C78.5274 26.0308 79.1373 23.2862 79.7036 21.5001L86.5868 1.3299H92.555L81.4026 32.2604ZM96.5303 32.2604H102.15V1.3299H96.5303V32.2604ZM123.835 32.7832C114.121 32.7832 107.847 25.7694 107.847 16.6645C107.847 7.69026 114.426 0.807129 123.748 0.807129C127.8 0.807129 132.156 2.11405 135.162 5.03285L132.461 9.215C130.283 7.34175 127.016 5.94769 124.01 5.94769C117.214 5.94769 113.641 10.8704 113.641 16.5773C113.641 22.3714 117.344 27.6426 124.053 27.6426C127.364 27.6426 130.675 26.0308 133.027 23.7219L135.99 27.7733C133.332 30.4743 129.368 32.7832 123.835 32.7832ZM140.818 32.2604H146.437V19.2783H160.596V32.2604H166.172V1.3299H160.596V14.4427H146.437V1.3299H140.818V32.2604ZM41.9998 13.2954C42.5194 11.2907 44.3408 9.81037 46.508 9.81037H47.3592C49.5264 9.81037 51.3478 11.2907 51.8674 13.2954H49.1117V14.7475H52.0161V16.4904H49.1117V17.9425H52.0161V19.3845C52.0161 19.4853 52.0129 19.5855 52.0066 19.6848H49.1117V21.1369H51.6751C50.9827 22.8403 49.3112 24.0413 47.3592 24.0413H46.508C44.556 24.0413 42.8845 22.8403 42.1921 21.1369H45.0449V19.6848H41.8607C41.8543 19.5855 41.8511 19.4853 41.8511 19.3845V17.9425H45.0451V16.4904H41.8511V14.7475H45.0451V13.2954H41.9998ZM16.5926 54.191H19.0061V49.2329H21.3261L23.9455 54.191H26.6584L23.9268 49.2516C23.6648 48.7652 23.4964 48.5594 23.4964 48.5594V48.522C24.8997 47.9607 25.7229 46.4639 25.7229 44.8923C25.7229 43.0962 24.8435 41.8239 23.4777 41.2626C22.9164 41.0194 22.2803 40.9071 20.9706 40.9071H16.5926V54.191ZM19.0061 47.1374V42.9839H20.7648C21.4945 42.9839 21.8874 43.0587 22.2242 43.2084C22.9538 43.5078 23.2719 44.1813 23.2719 45.0233C23.2719 46.3329 22.4674 47.1374 21.1764 47.1374H19.0061ZM33.3311 54.191H35.7447V40.9071H33.3311V54.191ZM49.5109 54.191H47.0038L42.2141 40.9071H44.8148L47.7335 49.5697C47.9767 50.3368 48.2387 51.5155 48.2387 51.5155H48.2761C48.2761 51.5155 48.538 50.3368 48.7812 49.5697L51.7374 40.9071H54.3006L49.5109 54.191ZM60.7788 54.191H69.0298V52.1142H63.1924V48.5407H67.664V46.4639H63.1924V42.9839H68.7304V40.9071H60.7788V54.191ZM78.5972 54.191H76.1836V40.9071H80.5617C81.8714 40.9071 82.5075 41.0194 83.0688 41.2626C84.4346 41.8239 85.3139 43.0962 85.3139 44.8923C85.3139 46.4639 84.4907 47.9607 83.0875 48.522V48.5594C83.0875 48.5594 83.2559 48.7652 83.5178 49.2516L86.2494 54.191H83.5365L80.9172 49.2329H78.5972V54.191ZM78.5972 42.9839V47.1374H80.7675C82.0584 47.1374 82.863 46.3329 82.863 45.0233C82.863 44.1813 82.5449 43.5078 81.8152 43.2084C81.4784 43.0587 81.0855 42.9839 80.3559 42.9839H78.5972ZM95.7883 54.191H98.1831V42.9839H102.542V40.9071H91.4289V42.9839H95.7883V54.191ZM111.599 54.191H109.186V40.9071H111.599V54.191ZM119.079 54.191H121.493L122.035 46.7632C122.11 45.8839 122.054 44.6865 122.054 44.6865H122.091C122.091 44.6865 122.522 45.9962 122.821 46.7632L124.973 51.9084H127.068L129.22 46.7632C129.519 45.9962 129.949 44.7052 129.949 44.7052H129.987C129.987 44.7052 129.931 45.8839 130.006 46.7632L130.548 54.191H132.962L131.876 40.9071H129.313L126.694 47.4742C126.395 48.26 126.039 49.42 126.039 49.42H126.002C126.002 49.42 125.646 48.26 125.347 47.4742L122.727 40.9071H120.164L119.079 54.191ZM148.703 54.191H140.452V40.9071H148.404V42.9839H142.866V46.4639H147.337V48.5407H142.866V52.1142H148.703V54.191Z" fill="#262528"/>
</svg>

<svg viewBox="0 0 167 59" fill="none" xmlns="http://www.w3.org/2000/svg"><path fill-rule="evenodd" clip-rule="evenodd" d="M44.465 32.61c-8.026-1.14-13.494-7.76-13.494-16.033 0-8.843 6.622-15.77 15.988-15.77s15.988 6.927 15.988 15.77c0 8.09-5.228 14.598-12.964 15.949v3.83h114.533a2 2 0 012 2v18.451a2 2 0 01-2 2H2a2 2 0 01-2-2V38.355a2 2 0 012-2h42.465V32.61zm-7.7-16.033c0-6.012 4.27-10.63 10.194-10.63 5.925 0 10.194 4.619 10.194 10.63 0 6.274-4.27 11.066-10.194 11.066-5.925 0-10.194-4.792-10.194-11.066zM0 32.26h5.62V14.443c0-1.83-.305-4.792-.305-4.792h.087s1.394 2.962 2.57 4.792L19.691 32.26h5.576V1.33h-5.576v17.86c0 1.83.305 4.792.305 4.792h-.087s-1.438-2.962-2.57-4.792L5.618 1.33H0v30.93zm81.403 0h-5.838L64.413 1.33h6.055l6.796 20.17c.566 1.786 1.176 4.53 1.176 4.53h.087s.61-2.744 1.177-4.53l6.883-20.17h5.968L81.403 32.26zm15.127 0h5.62V1.33h-5.62v30.93zm27.305.523c-9.714 0-15.988-7.014-15.988-16.119 0-8.974 6.579-15.857 15.901-15.857 4.052 0 8.408 1.307 11.414 4.226l-2.701 4.182c-2.178-1.873-5.445-3.267-8.451-3.267-6.796 0-10.369 4.922-10.369 10.63 0 5.793 3.703 11.065 10.412 11.065 3.311 0 6.622-1.612 8.974-3.921l2.963 4.051c-2.658 2.701-6.622 5.01-12.155 5.01zm16.983-.523h5.619V19.278h14.159V32.26h5.576V1.33h-5.576v13.113h-14.159V1.33h-5.619v30.93zM42 13.295a4.659 4.659 0 014.508-3.485h.851a4.659 4.659 0 014.508 3.485h-2.755v1.453h2.904v1.742h-2.904v1.453h2.904v1.441c0 .101-.003.201-.01.3h-2.894v1.453h2.563a4.658 4.658 0 01-4.316 2.904h-.851a4.658 4.658 0 01-4.316-2.904h2.853v-1.452H41.86c-.007-.1-.01-.2-.01-.3v-1.443h3.194V16.49H41.85v-1.742h3.194v-1.453H42zM16.593 54.191h2.413v-4.958h2.32l2.62 4.958h2.712l-2.731-4.94c-.262-.486-.43-.692-.43-.692v-.037c1.403-.561 2.226-2.058 2.226-3.63 0-1.796-.88-3.068-2.245-3.63-.562-.243-1.198-.355-2.507-.355h-4.378v13.284zm2.413-7.054v-4.153h1.759c.73 0 1.122.075 1.46.224.729.3 1.047.973 1.047 1.815 0 1.31-.805 2.114-2.096 2.114h-2.17zm14.325 7.054h2.414V40.907H33.33v13.284zm16.18 0h-2.507l-4.79-13.284h2.6l2.92 8.663c.243.767.505 1.946.505 1.946h.037s.262-1.18.505-1.946l2.956-8.663h2.564l-4.79 13.284zm11.268 0h8.25v-2.077h-5.837v-3.573h4.472v-2.077h-4.472v-3.48h5.538v-2.077h-7.95v13.284zm17.818 0h-2.413V40.907h4.378c1.31 0 1.945.112 2.507.356 1.366.56 2.245 1.833 2.245 3.63 0 1.57-.823 3.068-2.226 3.629v.037s.168.206.43.693l2.731 4.939h-2.712l-2.62-4.958h-2.32v4.958zm0-11.207v4.153h2.17c1.291 0 2.096-.804 2.096-2.114 0-.842-.318-1.515-1.048-1.815-.337-.15-.73-.224-1.46-.224h-1.758zM95.788 54.19h2.395V42.984h4.359v-2.077H91.429v2.077h4.36V54.19zm15.811 0h-2.413V40.907h2.413v13.284zm7.48 0h2.414l.542-7.428c.075-.88.019-2.076.019-2.076h.037s.431 1.31.73 2.076l2.152 5.145h2.095l2.152-5.145c.299-.767.729-2.058.729-2.058h.038s-.056 1.179.019 2.058l.542 7.428h2.414l-1.086-13.284h-2.563l-2.619 6.567c-.299.786-.655 1.946-.655 1.946h-.037s-.356-1.16-.655-1.946l-2.62-6.567h-2.563l-1.085 13.284zm29.624 0h-8.251V40.907h7.952v2.077h-5.538v3.48h4.471v2.077h-4.471v3.573h5.837v2.077z" fill="#262528"/></svg>
